X:1
T:He is Born  " "
M:C|
L:1/8
Q:80
C:Arranged by Arch Ott
S:Slow Air
K:HP
e[ | \
{g}A{g}d{gde}d{g}f/2d/2 | \
{g}A{g}d{gdG}d2 | \
{GdGc}d{g}d/2e/2{g}f{a}g/2f/2 |
{gef}ed{gef}e/2c/2{G}A | \
{g}A{g}d{gde}d{g}f/2d/2 | \
{g}A{g}d{gdG}d2 |
{GdGc}d{g}d/2e/2{g}f{a}g/2f/2 | \
{gef}ea{GdGc}d2|] [ | \
{g}c3/2d/2{gef}ed/2c/2 |
{Gdc}df{gef}e2 | \
{gcd}c3/2d/2{gef}e{g}f/2e/2 | \
{g}d{e}c{gcd}cB |
{g}A3/2B/2{GdG}c{e}B/2A/2 | \
{g}df{gef}e2 | \
{gcd}c3/2d/2{gef}e{g}f/2e/2 |
{Gdc}dc{e}B{G}A|]
